components/2.0/icon/icons/icon-page-outline-22px.svg

<?xml version="1.0" encoding="UTF-8" standalone="no"?>
<svg width="22px" height="22px" viewBox="0 0 22 22" version="1.1" xmlns="http://www.w3.org/2000/svg" xmlns:xlink="http://www.w3.org/1999/xlink" xmlns:sketch="http://www.bohemiancoding.com/sketch/ns">
    <!-- Generator: Sketch 3.4.4 (17249) - http://www.bohemiancoding.com/sketch -->
    <title>icon-page-outline-22px</title>
    <desc>Created with Sketch.</desc>
    <defs></defs>
    <g id="22px" stroke="none" stroke-width="1" fill="none" fill-rule="evenodd" sketch:type="MSPage">
        <g id="icon-page-outline-22px" sketch:type="MSArtboardGroup" fill="#3D4752">
            <path d="M5,1 C3.895,1 3,1.895 3,3 L3,19 C3,20.105 3.895,21 5,21 L17,21 C18.105,21 19,20.105 19,19 L19,6 L15,1 L5,1 Z M13,3 L13,7 L17,7 L17,19 L5,19 L5,3 L13,3 L13,3 Z" id="Page-1" sketch:type="MSShapeGroup"></path>
        </g>
    </g>
</svg>

<svg width="22" height="22" xmlns="http://www.w3.org/2000/svg"><path d="M5 1C4 1 3 2 3 3v16c0 1 1 2 2 2h12c1 0 2-1 2-2V6l-4-5H5zm8 2v4h4v12H5V3h8z" fill="#3D4752" fill-rule="evenodd"/></svg>
